X:139
T: TRARIRO DER SOMMER DER IST DO
N: E1219A
O: Europa, Mitteleuropa, Deutschland
R: Ansinge -, Brauchtums - Lied, Kirchen - Fest, Sommer - Tags - Lied
M: 2/4
L: 1/16
K: F
 | F4A4 | c6
AF | C2FGA2G2 | F4z2
C2 | G2G2G2G2 | A4F2
C2 | G2G2G2G2 | A4F2z2 |
F4A4 | c6
AF | C2FGA2G2 | F4z4

@@@ Tune index: 4823
